svg/na.svg

<?xml version="1.0" encoding="UTF-8"?>
<!DOCTYPE svg PUBLIC "-//W3C//DTD SVG 1.1//EN" "http://www.w3.org/Graphics/SVG/1.1/DTD/svg11.dtd">
<svg xmlns="http://www.w3.org/2000/svg" width="900" height="600">
        <clipPath id = "r">
            <rect width="900" height="600"/>
        </clipPath>
   <path d="M 0,0 L 900,0 L 0,600 z" fill="#003580"
   id="blue_area" />
   <path d="M 0,600 L 900,600 L 900,0 z" fill="#009543"
   id="green_area" />   
   <line x1="0" y1="600" x2="900" y2="0" stroke="white" stroke-width="200" clip-path="url(#r)"
   id="white_stripes" />
   <line x1="0" y1="600" x2="900" y2="0" stroke="#d21034" stroke-width="150" clip-path="url(#r)"
   id="red_stripe" />
   <path d="M 679.30456,422.70365 L 626.62413,413.67208 L 635.65571,466.3525 L 594.54891,432.19071 L 576.03027,482.32909 L 557.51164,432.19071 L 516.40484,466.3525 L 525.43641,413.67208 L 472.75599,422.70365 L 506.91778,381.59685 L 456.7794,363.07822 L 506.91778,344.55958 L 472.75599,303.45278 L 525.43641,312.48436 L 516.40484,259.80393 L 557.51164,293.96572 L 576.03027,243.82735 L 594.54891,293.96572 L 635.65571,259.80393 L 626.62413,312.48436 L 679.30456,303.45278 L 645.14277,344.55958 L 695.28114,363.07822 L 645.14277,381.59685 L 679.30456,422.70365 z " transform="matrix(0.838568,0,0,0.838568,-303.0406,-139.4657)" fill="#ffce00"
   id="star" />
   <path d="M 239.1926 161.73254 A 58.284271 58.284271 0 1 1  122.62405,161.73254 A 58.284271 58.284271 0 1 1  239.1926 161.73254 z" transform="matrix(1.029437,0,0,1.029437,-6.233738,-1.49345)" fill="#003580"
   id="blue_gap" />
   <path d="M 231.62321 165.51724 A 52.985703 52.985703 0 1 1  125.65181,165.51724 A 52.985703 52.985703 0 1 1  231.62321 165.51724 z" transform="matrix(0.943651,0,0,0.943651,11.42854,8.809477)" fill="#ffce00"
   id="yellow_circle" />
</svg>

<?xml version="1.0" encoding="UTF-8"?>
<!DOCTYPE svg  PUBLIC '-//W3C//DTD SVG 1.1//EN'  'http://www.w3.org/Graphics/SVG/1.1/DTD/svg11.dtd'>
<svg width="900" height="600" xmlns="http://www.w3.org/2000/svg">
  <clipPath id="r">
    <rect width="900" height="600"/>
  </clipPath>
  <path id="blue_area" d="m0 0h900l-900 600z" fill="#003580"/>
  <path id="green_area" d="m0 600h900v-600z" fill="#009543"/>
  <line id="white_stripes" x2="900" y1="600" clip-path="url(#r)" stroke="#fff" stroke-width="200"/>
  <line id="red_stripe" x2="900" y1="600" clip-path="url(#r)" stroke="#d21034" stroke-width="150"/>
  <path id="star" transform="matrix(.83857 0 0 .83857 -303.04 -139.47)" d="m679.3 422.7-52.68-9.0316 9.0316 52.68-41.107-34.162-18.519 50.138-18.519-50.138-41.107 34.162 9.0316-52.68-52.68 9.0316 34.162-41.107-50.138-18.519 50.138-18.519-34.162-41.107 52.68 9.0316-9.0316-52.68 41.107 34.162 18.519-50.138 18.519 50.138 41.107-34.162-9.0316 52.68 52.68-9.0316-34.162 41.107 50.138 18.519-50.138 18.519 34.162 41.107z" fill="#ffce00"/>
  <path id="blue_gap" transform="matrix(1.0294 0 0 1.0294 -6.2337 -1.4934)" d="m239.19 161.73a58.284 58.284 0 1 1-116.57 0 58.284 58.284 0 1 1 116.57 0z" fill="#003580"/>
  <path id="yellow_circle" transform="matrix(.94365 0 0 .94365 11.429 8.8095)" d="m231.62 165.52a52.986 52.986 0 1 1-105.97 0 52.986 52.986 0 1 1 105.97 0z" fill="#ffce00"/>
</svg>
